assets/svg/github.svg

<svg width="24" height="24" viewBox="0 0 24 24" fill="none" xmlns="http://www.w3.org/2000/svg">
<path d="M15.7059 21.0777V17.5625C15.7059 16.5582 15.8118 16.1564 15.1765 15.5538C18.1412 15.2525 21 14.1478 21 9.52783C20.9987 8.32762 20.5051 7.17499 19.6235 6.31396C20.037 5.27143 19.9989 4.11611 19.5176 3.10009C19.5176 3.10009 18.3529 2.79879 15.8118 4.40573C13.6594 3.87402 11.3994 3.87402 9.24706 4.40573C6.70588 2.79879 5.54118 3.10009 5.54118 3.10009C5.05992 4.11611 5.02186 5.27143 5.43529 6.31396C4.55377 7.17499 4.06011 8.32762 4.05882 9.52783C4.05882 14.1478 6.91765 15.2525 9.88235 15.5538C9.24706 16.1564 9.24706 16.759 9.35294 17.5625V21.0777M9.35294 19.069C4.8 20.4751 4.8 16.5582 3 16.056L9.35294 19.069Z" stroke="white" stroke-width="2" stroke-linecap="round" stroke-linejoin="round"/>
</svg>

<svg xmlns="http://www.w3.org/2000/svg" width="24" height="24" fill="none" xmlns:v="https://vecta.io/nano"><path d="M15.706 21.078v-3.515c0-1.004.106-1.406-.53-2.01C18.14 15.253 21 14.148 21 9.528c-.001-1.2-.495-2.353-1.376-3.214a4.02 4.02 0 0 0-.106-3.214s-1.165-.3-3.706 1.306a13.71 13.71 0 0 0-6.565 0C6.706 2.8 5.54 3.1 5.54 3.1a4.02 4.02 0 0 0-.106 3.214c-.882.86-1.375 2.014-1.376 3.214 0 4.62 2.86 5.725 5.824 6.026-.635.603-.635 1.205-.53 2.01v3.515m0-2.01C4.8 20.475 4.8 16.558 3 16.056l6.353 3.013z" stroke="#fff" stroke-width="2" stroke-linecap="round" stroke-linejoin="round"/></svg>
